-----BEGIN PGP MESSAGE-----

hF4DZCd6cSE4GfISAQdAlJ4iWnjsP7SZL8H3bts9CzaFkSZ2FaazaPjM7n+tuy8w
SePzBTCnAzrDt5RkRIpND2Bu2k8wE1jjgjF6z+pQ1rBd7f+7Y5DGf8T50aP1/N46
0uoBNTvrILfF2DHCAmggX7EBU8SX4qtR1zXOclH3GsMRTfXFDB+zeNkisGq0y0LP
Cnmlb+z7pWSe9ZcMZQZ7ZysxKyoLjqZrZE3kaKQ6+mj4RjQJIAKFTXTtm5dTm+Jd
qFtePRz9OGjyhfwT2GSTBXMuET1V9IDT8HlGgdCCR920UYEx8Ns4/Zj+Qt5B2xIm
e0YIG0YRRclZFS44vp6/CFNLIIeaxA5ZOwB4g68Tft+LV6MNn6f+Ph6LpWtz7GG6
Ex9dSOK3+5884WPevby6ABk6ZgtgB6aZICr62cTqWtaAhTM7lh7spKOPjP4ESbc4
UqB5ucLC3b4mkpvKIOxYP7gqpEZa7lUOGupbQtM0GM+g1DX2u5qe04EzD7qSLReT
5ly0zxK0JXJivZIXCzE2zxOaaKZ+TFBdspydWVQZ9rvGiXurXq5ySDR9PHXsSJ9d
JICmZSdkwzISWqJItGesYt5vZQDUfBV4+xV27+br272KfGgwc55wp5fV7yIHSKRm
vIewTVKznq94K24muJV9zoGYuUF+1Y8d84ip0td0bqeKllPrs+zQ3orJotvAJsrS
bWlacVoyQ8XfeGxlormyj4wRrpRtMiQxbEhVPZbOhWjTZg114JJw5Vxn8mmdCtQf
o8c9bzCyPEGHMij9L7wOrDL85ddmGx+SshOy6CODnjPl41eTbEAJX+Zxt/8GuYDF
nr0JBabynvWp3Xuw2ZMbeR063Z7N7VHVmkbflvBX7yck2rpkYyEHEGo0ZDVUVLID
cCtpkhjr4ZpDtrFbUaMR6IjqMHIYnTK7Uj14i5y5gL/71U7DlaoMk38lFX2IDNK2
9oWK9TJPZyHqNAdHqAJBMHWdmCaoq6FOfpmOjdnX4S952Xk/uEOEOX3t15QPZhqm
VWmUvLeO8uWUR7paq2zfBtRG+jm0cHmhv/ENaRSSrhLtANMbhpe9EF+O22hIx3hQ
GUn2T7auaZDg8nYdoXNs0w1fstVK6QBQHqWiBATg8OFzhljXiCO5Ldt62GGTnaEk
ZPZvxBlZCo4z2gPDsIUSlkFKCL52EOIR5/BNg9RuyJz8QF8tVSoPyHkgfibPxK0U
Nw1aXkC5knXVnljiQnz0Dvo45syOXAj0FJ5qeIu9bRf+Y9wRSGQyl/W5WBCZ8rX5
Psxdk6gn7Ut2etxSZUVhmABE5ZOQeI/zGxnBzK/ZJRCDvgniMuj2G0SH2tWBJRTO
4E8pJuUjEIMKtJ3vLu4NhkaRbdZ8yjwT1gdf4qPnHV7vEVfCWVOiwsTHED4Z73+i
jsInLVZaaEF/lW8NH/khVwmU5QmY8FBmzWQb/KnWycfCOOXgoPnBFbcHscO8py/V
8if5buzk6crQVXdMaLz4oW8a6f6zvI+3C96C8Ud6oMhuvXPpapRywjp0WZo1ii3h
vtNi2SnSWvrRwSsiQXjvFVDAu1P/KuvVG8VYE4m2GtNIDhH470jM7/95UbbUa7+6
v8uIhA0Ec/7ehTx9zApWXcXnLGNLqy1N2p0KUfkZ6TFMGP8HORoudtE6Pj41nF8y
w+N/DvO3nOx34jq+/5hAn4Mz+O+NPI9qVcmIhdIbnNSc7DEzzvvtAYr5HpIUnOKO
+FsmcsOqCqZEQuQPWA3C0kHVCFHcXS7QW1kemltGsonDIHj2dj2lTI0Y2BOQPEzd
fR8rv4HILkzirAu+uAwcBJE8BQbIMpyQ9umbya2J3RXKgQHdagLJdoEia5H91bWE
1iQqWysO57KZNIDOIFprDUm50aiIkMZ/LvP3xsM+sXWrUqlIASAvmBQQwEwpoHPC
0i6W256KGU+eBSY8X8sEzL2wdO8ttqgv/i74HyECtejhIf24rfmv5oJe2mH3WnSU
sPLwYNy48Hgisv8SdBh6fFlrUaNHkiXfd5hDZapFfEddHFcOcKuZMV9eP4cLKsWR
Ul9yaIL07yCMivDOi2pjPDtSy2za/dwNXP3OVRaQXpMn0VI4KaU13wh47zleB6da
dEfLrIOEyvJKSnvFrAyMN3SZtlJ5/hq6y7olei3g1uXCA/NS7CUhcHu31dCBfqvB
G03FwEsUw/WZ7cnIkEhh6q5IvrSKh73305rDjGDzwUPSq97xrdAsu7p2wJtFaleB
PuMRN6YMqYaeyHvJ4Kk4Le0HpGdY01dpcqoCJhQi5n8ISN4WjSqiOlPLIZrVV/Wv
IuORPhjG1tKqBTtokylJ45VqaqYBH8LTWNbCO3ZU5XuVpS1rK8R2GnzZ6LwatTcz
TYbBXY2Ue3/k9u0rUnsNDfkCrJjxWkTyHeMs8hdNBv5CoHdU8Q4emUtFSQL9UdYV
EaJXewE+utGXdpq/3RDmtqKFQcgc5XkhwvvHhJ0V1QB8tyTN3s8Z7WddreJayPns
CEr9k0HOi/fqa6zlcHWXbsQTxbASmS7hkRBG9M/pZUY=
=TGbn
-----END PGP MESSAGE-----
