-----BEGIN PGP MESSAGE-----

hF4DZCd6cSE4GfISAQdAyhrzpxttIeD0rikaVHyvGWvxFNUxscBeV4QK5HGHVHIw
MKJXRMy1vWlTKFWnussxOUfcwTTxPgsjibZbzZNKHP6eBnGcWrVgEf6QnpE4RwQj
0uoBZXeatH6XFX8IVILOt1Y9UZzM2Ery/xL+j5FPGWlvc922GotZpq9TyQdiEclH
WkMiOXXJW60+0GdX9LGJpuCkpRTt42V1+JTydjqWfA+SFgH7sBfd+aY4QMz8M3Cx
Maj3aB3YEueVqj0hdiuQGExNkVEk1Nv8BJBsIcl/Mw7xXgiSkJdY1Us9P0/6IrZG
IgOMdC9X5OlAY94eLQawAitRfAcTCW74xPJnHNqVB41wuDCm8gzf8YymHwxiapSZ
qCOJy+9Of83i4UBqZciPx+H8dNalFrNWkrRG3cQDhrXtLXf1MXzQDgxqVIlGe1Zk
N9Q3V9xynXKtbu9SnXtCFz3Vl6lqnzzmxlmlgRd8PKffXlqrsObZ+l80OLCJ1GNx
zWUX8VHK7/ABvjl/ryhhVOEqwPXwvtulfwcKc1aNMh0J0GvX6/iRJbHknXOryeGp
ovhxRobyXH+Ctv9OhIYbKLi8RL4K4NKUu7jO7mr/4WSasC2ypwVtRaPkBwFCGwuj
edI2xuOghfsPEbk+eQ/X5XSiazcUZNgxGH8dd/VB2pWMaVFvYDAFkCyF2OykhMyE
CXI+RmWDul+7Nlk4vpFv9V6pMN7x0aHt2Pspo7iDfMvkeA4vj880C7M4Q0y0lnkL
Dk/1mRZ4gbBG3c4yQhzkiDK3pilED+MYZLWeDlBEtfygK6BlYMcRdarUKn+EDMKz
yeL3w7xkFAA18KqMofU2dORCZlQRCMALzrpY5XqSbG633Ene8/FBSgbep6EfrglI
9DgfBD6XkJK8KSI9SfRzquHcI8xe480k/V16qjITdsvojWk2XpOjpi3ak4Rv20Tm
4iu9IXkn5bkXvyDVC3joAlbfrgmTaivLA2awQlwWE6SKGZvpQH1/g6vqfxGLKI+J
vvazmAGOTLahN0rFWYKO12Q/a5Y5xdTtyS+GZCP5jjS0WmeJG0vYTz45VC+3ruV7
3FoywcIVBxQycQ2HM2V17JZpQ53lyCpKmX1Ft5CyNfP6t2hSi+pacphT26mgZN6q
uN7veUgUiNjxyluQS1wJ0ALwGjc6RkBDT2QrpItEN4coIuC/9mDa1iRmlA0Cnyl1
Ep9yscw/IzJuO/j3yavffu84aCADYgzQ6lbh4HtQunUT0Lb1mngmMbEQfgBiElEe
BiWgys6ml1dU1zINNpEC0IgJbNV1ME1WUFX80rhpXWpRiopHLH5kq2MaMguBO3jI
wORFhBG1EHcRMImm8E7VDTDEYYc+xPMnwbqLAAp7u/0WWNQJoSSfVI4dj4XLDx/t
Hvq72zDq+r0AHO1FQM9hjggE77Uxf0lOBp+7sz6mYX4zlE5vk6q4GS94DZOtbNBH
F7Kk7vf9qYxIWpFkewro93zB6r+zEr2o3I0GWD5Ew+jY95lrHMsPjAQjtIurNWnQ
P5oizvZjLPtd5P7wIQ8AgNJ4vzt72hq6e6R7d45umbCMSgtkGTqhpi3HPCkVYxVk
0MYBdc3u1cHabLCLggK3e6PA0sjrt2J+A2nMWD0FALtTnwpElxkI0V5ZbSt0IL9l
w3kDfpzqVdEe8RIf/yPvrmIEts48HQz7ErUahS3GxrpLfhQIII5+U20SeOWMH6/T
Tqa+hlgZGKxKtCuDQp9gWrDGPuZLWU64yP0DhKpkoDcVIHJLe6iu5UNVoRcW215v
vIhA/WcRb5oaz8Li4SD552cRcy/Z0BiS2T+v/4Xi/E8XRtD8dc02TD86rUs+oEPm
KXHGn9MWLvfdCl5WsIFtHkinv+P3Nt0Upcpx0WV1Kj2Hr4mLy+MNXGn+kV5AMSHc
DXgqObwg6+hV5Cu3SHSicb/3WDm724RZmehw9BjGC7fLAsBdNGbcXDOaUIlVr/me
VpGHeYkihRwCDmpWCxIWeopOgCyoYVFbYiv5W5gv88SDmQX7+/T5hXCK2XieQtYU
p6RO2Sq8IlbqavOje6jr3DFd1NEKf5i1GzJcR0g7/WEDCAvPRy3NRneBmZCAMbuu
b+SeL2zmipMJbYNbj1K9ej6d6DGXjGECGE7K+4vGieP+37URCu77k19KLFLBmX7p
phwV4lWkh5JlJWaFO1fbv6zDVWvNszkEaONiPfpETPH0wqNGomroI49s8G+wdFzY
s5ELfGERyj6Usyq/U2ayfvEK0xvnwbOEmCXGKcqKRfYjvCD4t5ZJlM2LIAkB4BFX
wgVz+ECu0QtdXUwCMzfPSpw7ROcV66x3HYA/BZkOwJlNvrwBqGzrXXeRhpFSYyKu
sYNNNQEwevDvFTFZj7Jupl9sX3en5LsvRNtWEUS+/9OROigXY4T6B/1QFMzdEkaT
K9EXQjVQACUOIyonC7qre6OSFuGdS7rcnpiHpRzt+p6K6b2yEXPpLDJnGp3ECfTi
UPXHpRlExSWhOVgD+fkSH2S99wN5f1MwBxXMlyptJlve7SbV6e4srUVvjdsE0MUI
p8r+PNpbchcXFwrke4MuuAhLf2rWij/i1MQil9vSbJuUgkyeta6wiumU/0k234QD
oIyAB4DQ5Hh2QaAuvX7dk+ReucsgNQm20M5fwo36AUpk1DCUf/W0mVHx3h6AEvhH
i/e8KB4UIk/HmqxC8pi8TD2tTNuHPGteGvgc1X14okNcpIU2ZvpQW891j4yFCWg5
jR5v2ZrjpPZvbPATyKxxMBpHqVuym51G976jVhdKLPdWl2BsN9eUPjWhdIMtKoDO
TgxsrkqpqYNlGLOo0K2lho0pLVLdqoLgn1+dkxELp+5uLbzsSOUJpVPxrg8Rfk4s
b3jthZN7obIGJNQGOOigUVa0ycD+wWjS8JqTzagzkKh/MvnuCKcvK80fDbyyRMBE
j0F4s+/ppV1VFPwpbqLRbjb5AvOW4U14ITziEjQ8MoMqHMKenvC5a4prC64kCRY4
ub8zpKomu7ME/noy4Kruk73HISSO2cY0eFFox5SM20sqP/upYbEUn1rNTBfIE45/
vR+rT8skMlpRfmWGmRTeiY38gETTUtHr94XExW+PvIDLGgSySoBa05QNkoDpsHF3
IphAdrnL1QE6NSvaj/JDcCDg+6z+4NJrunRQmzGFQjzyt9AGTrCTl16+/AknWgX4
TGzj/QFLjdF7gA2FLG83qW2mTrMV9bkviGu5wGbTEcNqVR6heJ5EDJkadAtHnios
o2mGrMj58HFy5yj9Kb4X8Lz05BZ6umO/Fxxu+OL33VVIA3yVpKL77g9BVANQnYdP
XFl+obunmlhyC2RedoufbOxe3VGoTcGtX8bOjKwF0g4ZbeAH22McRGotvsDzSoib
3meCnh7ZtATzlcMtydqnD2xVO8K3ks9kh0h+LKJkn78fOQT1+KduBrC8IXA8fqlE
92yS/adeev8F4b49HOm/dzs7DarAnAZV6pITcWJ6SP08xmLgxhD5BKkZBa8G8+Wb
MwgVAZXxIo/crXsrIkKWz5cRADSc7q64WftbV3uPznEPwSeCapBrnsmpUSN5wOnr
9ZLNUr6oQcO2ezZxtRDAnnRILhwQvpCp+B9bpgYAnJGZhL55PopJC1J+udN8IDZG
aJ7JWUScXy/oWLqubAeKySNKi0eFKT1OOUczOmGUtaxtbdkZwv83sMvQGWyYSEAi
JukuttdiXhy94Jlyvbwu1mOf/ryHK7ItjXrccWODuLHkQ8K3bK4uVuJL2LhnO01O
0uYXkrz0DTBJjai/+RhI9QNDL1mNxg4EWURVBJYGJxyrUGFnbAdYx9Vphp3cSJDo
EJ61rkUHRtJ93W1wTY6/urqmCNg1mYQVFQgWu1igOSZBXBablHu5xKWHtsIV5XsO
ny6z8I10gc/ZK9QTaJ22WaBn9fp61pGmaNVwrpdws2O20EWW+YInVZN639bQF7Dl
bP8h8mpc4pvv09ZY0rdY5WNeXYTtaQK3aTHy2lwISbSC14bKKq55BatShwCiWlpW
tmW/4p7TP6nMNk8nNrGhEuRLyF63CcOCdlP6gak4X82vImqhsv/LkxXfwPAjL7a4
tzMGPXLWMx6acxSRXIM0txv9NfwNdELlz5wkreGexIRS8AqFAVSC8y7sSYp/BjcY
XoTMGUqMyyCX2SCLDYwVuFHNdmZoYb6meiKzK8G+wv7IWqnPOnhLdZEHTgrwr6JF
69BqDE2/4QR+L2KdJZpJYMcPtEu12VzJZv3uyhTfbCekv+YPGI3eOPD+w8y/79uz
BfbzbzGjvXA3QAHwWUYzX4N1EFR0allqGCf9hleiCLSEr4lBUiIwqAzB/U43nA86
DarXnaMDr60dfeg0afRAKnA9PFmvCcdro2vEmYjEMygODx7vjRSvvkgrseU0EZN9
4vKDSA0WdUFr9tJd6XCY3Z9VRDRSGR200HpsVAxbtFjBd1dnhRQNM4gDprUhO2MW
aQAHkPK8R/XxtmpOPNkURvp52KhMC2OQBAip5hVYq0y+ehgyiGxOIFvFGnrDBFPi
q572/6RqW6o15Tcbj5A+Aj+nT/AGQE82UOPAXUUtbwWTJoHyTQ8bf7OnYuKK5oY3
fPIb/dsaFl1WGBRboWTW7S0UkxpYUXZpcxzMDGUgs0FToDkTPiCDpc3nWwrixiFa
6a4EVxNVn80mamUnLgn2gzEcRPy5oS3neHL+rIy5N9J7beFHSlCjfXBOPD9r4MDL
iSW9rs50sMF0ILSA6flWwKU+m3aA1nK3iEUkelguA0X86uu9g++HhhLBBMIGCo1D
g130A1tsjIev0RRR7GVztoPSMPacLQNmLMNVJLg9k3Tmmsvr3s0lSoKve70h6jmI
L/EI7PX+vh1SG/nkqX6L1NUt5PdWhkJ0jhWLjPOMQfrDg9cZiBM4lKDgDkc2u8Zm
kgpQmp0G1tpDFB6c6M8cIB29Id9YDQPUqoupIFoHlgv0Yqntidik5P535KZOTIRb
hZXGaVxboJEpRG8ZrUWgxlxSgvdbD8wHmrbv3LzTgy7Ce+jYvMPvozEbTjaRZhqM
9kuQ/gRycEivYAAA21b6H2JcuSky3Wmi50PO39l/WoETV/C250Twz8rmhU/6BhNE
0HKYMv809Ak7VDn6a07cHfw/yR2si9C5KV0ERGDI3gLBp0ddC+MfHgJmzWZYGItY
EgJh/mdcEC6LWebqjPz3n+5monj1NdXkAvUtU1v7sJJBBKN0LTin2q4k4wfJ7csH
bERRlFM5ZoyzMfSt44TeLxDkm/cF15+uozWwkpz8n/FiVjPWrALyRTx/ADBALGWI
ofsxOKMM27X9kQnQeIFxqtw6kFDbZrVo1PzNsuUCIZH7PTdgEBppQdIi6UizdTQq
rprNESiY/k0K3GTEdwNfXCz6JLSPEGbWlYpSAKbelOP0rouvovIkLdJ03Pq6FFtp
nDy/olDMYWpA+UfdchT5xgolDgkrkaqmvCbC+ZJ7/sK9jgYfTWYZGo7YKaYyqv6q
m78dcsr+wE1ilKcTDPjNVpLWYr/07vWeo23HIFHJNHU4f49WS4hCijmNBXiv/vQG
WRFGMoqKm9G6SBq4E0V8Y5QvTPJVg6YsE+HZBAZA9vrfs6QCw6LRsPXXcGmGpM6+
UyQIs4CZ1TMAbDedYAch29AWZJYBEJsQA+PtH8ffQU3zB5jW7lP13aCeWDfBPZ50
+hzst8kCHP//R5QG5wSqGnD2hany5XQKuGzO90Kls0/qctkKzFO3vZ5oiphsldXn
TR6zBo0PYcgj2Jx9HGt5YEem8BkDMJhVnp0ynT0zTUGXW8x3Q9Y/sA6E9uBt+xZl
tKyCUoyuR9XAxW4I4+e02t9ZcSqIaiY/hZy8qA9plZe/H5g4Gvu9MMd41PKRbG4V
Aj0d378Sd7YQ5gQ/HV/NolE5MjXxb0RqpwTKuubSVL/A9ii3kFK5hVQYN5FHxjhf
acoA9MAE6ac8bJwfqB6EkNHZMSqXAc8ACUOhwGdUBBDG4XCiBLURIG9j9CRwYkS3
8s6C6z8gOXear4rMN+9z141Z436Q5FqAqA5n6XqFFD3jsTfw7q9Yh/sg/uh0Q1q6
eIp6WhL5qOUPnWH2HqaXBfdB2l4DlxCQsFz954fDkOLkHZKFmLhW5ZrbLPYlSpPR
g9lTyIcCrKOkLXdPSJFY0NbNDAGxPiqmZBqDZUfor+LpoGMNauw/KpjXv7A1u2b6
yqo66M/Ix6l58SY//EkMDZ6WHU7+KlNhwXKoJnfEhp/BRLtR9QwjmY0ctitvtp/z
KUzzeKPB3z+0cm1v0UG7CRSD7SxwWFVMxCj/8j+D2nTPG2BewzprShUQ8Rgy6tJk
kavF0Pvb8/Fmh9WjVNSBZ3IKEQ91cAYwsNrzRzzy9lyY+Ae6p2yqzi1TI+tY3Fb2
4v/PC6HkaZ4kxN4mX5W3VvBV4ZgMgKcmHnWTRouKsEoGggAY1RgPPVcruk3Gm0ct
TU7JIuUVhRGza5pThU6NY9n77VsEgE4a1uyU7ZZWG71sEdbKEisJPySlPsO1A8wv
Knatmwb2/bAvI0tmHEr4uqZXXOUPungrxoZ3Sd8anPXOK4dOq0NfnDU0HgDoqopO
cmLxSQ7yuFe/HinBO9FHEF+HT/qMHxhudpHoNseMCDnCVevefN/I2dzvtdob0meT
CH5xOoZZVxYYDmQJGienYARqMh2wIGPGRtimfPtIUzrny0vfYsm++MLEerZtV7/n
51HFVjM3YpelfphGc54bOc56ZIMXIF8bEjRNDcikGcbHOyjLUOTEf50/ml3WAcxu
7mqluLZnKsQnVMUP1APiCl1MPFwhFHZcClo0JhxkY/YDTGKq3e1YQTFRcaDdAc6A
kwVTeeWMVCdTF7/cTc8nkaJ6TkHTKgyy1/vcihQaGskbW8n4/alBYebs8XefJzul
KaeefnVB/X0uUwNzZWoEzIujVuN7Rt/MdwzPYM9csqhAoXLhuCMUzjkl7/sSZsVA
UTGrUALWiKBFuDhkC3UyM0YUUV1X7YUlgVsPB5HUaPckB0MxcRT8lDbNzGIxz79S
7hVhbgHbVgcW1J8QXRXPwEGU93pzq+gE8PiWskcHkJKQ7SzFfbFixF1f+pvLiYU5
SjGva81+yaBLKwQmojlgCyRS/nBXKNw4yxYtsUPx+JvwA6apLCkQnNJX101RwAg/
/mot1/PipT1yMPAdRXLxm8g2JevDhDDTyE/N5UxHa9nZr42JkIFAGT61gi7mWGCw
mSX6SGPzokpvY0QFS0Vw6Ykna/YaOilyq//r7xeUtS/9R/I03dVXXzBBeTTmeJJL
nwJpMJ44R/kz9teQO4WFmybXXITcCZN/+FRAoKcRKmQb0+K8Id0Y1yXuOjZ+3VWa
Ibu11Vy/lgdx49UTqH06whHQpLD+P6TB5HPhEyoNfqYlwguQSrBQ8mjrMkN9fZQ+
GNpnXhkBiZNmTbpxr5JrjOEYyXebgiskhWSNwqT5/XB8S28yw9WDksaEK4CYC1Z4
lpheo7XWg9Fl4Gr/QrTktsR5KJLZK7ZAvnd4hF6mo7kjZKfDz8iOqmW4fKVjO4rB
+oMggOgSyaMl0BD+bFMO0OL1OY4/zClsuj8IaIYjKy1n7lLsqSYp1uTCx6vsULx/
RbcsXYxok+pPVYALJ9UNdexoNIb+B06Cg/Pxd14NMZ+KN+Qw5fFr6Z7NpdNeBBrJ
QQfVr/FFVQRnD5EbgAXlRaWuIPzh/fAJQ6rmAIXwwnK9WwBSzIYoFPwIVOdJ2ty4
BKOcIryabcU0XnuTTfhtMcUEWGHXMsfQx59Ymnr8eXUQ+EpUdOUDlZF/xziAMCQ+
MW5P1i+kr4KXk5EGoSp6NRebpdiUh0gu5SpCk92k6ypftgNDCH9J2l0fqzPIIt9O
RSOAZ7jXccxkH9lfrGVZnH5hXmB1wcXwbYmnLXuY8L5SIVyzcReeRQwUH6YJ3icU
ovyXtWW25tuK/TMSF2GkBDKFFstHfhzaUVbwtKwqF5FLIG8/m1fC5MjzWWpNcpnE
beNRLEff9gtAJc7WQvoQ0roSEm8dhxGMbE4eqozE8l/kwib0t65/qMqbUWOg0m7p
DfERpkNXtq9v8wJ5cvm8pecyg47XrB5HsU96adwZ9TPkySejRyDVzPwzj7qefK9h
vZDenTvZQsBN2cpYTA3Q3vH0jK0U/gRRsGmn5pu3+rejrA8CN+LwwLZgiUpeJ7eW
tlrV+AiRaZ6dW3q7MM/QtweE8pQxNQZ4MbXK+7ppH/pOBFStw9eE5IGv2RwK/5Uu
N1ankV+UdHwBH7m4fS/dFTCINTtc1N6qv+yKd41wHcdAw4+eG6tEE+/x5ipdQanS
AtNY4+vo8c4bJXPsV+DFYVSNY5qgpiPy5reEQKYSC1Hq31It3Ms8dmB9v3W9AiKU
9/06RdaI88ptEiETao1hOKKOLQ53S4MpTW+3pIUDgNj6AnlELh8PABhLX8DQGfel
jo+HAtLOqq7iC2HJoVy0VKQ16FjQqfFVH3yrJlu1WtINw4rljelYrI150uzccw1N
BhFVAReDCQbW79ycF0apKZnrR5OgNXNpL6HjpHtYmXJegjOaUIbowjIvLGk/pYoE
bQmW85RlAwMKMKJNjzHbE7psphljrsLc0EQIdULoxOVldbMfqnZZPddx1e21S0ko
YgbQyPmUIGyn51JoIOvZ+g9iG+Lh6i9tRXB4pyEMgDKwjLAd3jIbd3+eSWfl7Ar9
TSUmNXiymx0PwGDiNBcSlHOvwJJT2fwA6DMJAw+KZ7k7wNM1wkY5j/9uitvSEN4s
57UkSwTIVIpefndp2EoS2pEB3on06FMNc8x4GKkgxzczsiG5SqIFwDMPpaRSSP2+
Qz1SJN0TFr6AMQuwt+hAAC27rzBCjBL2hGFJdKriHL/VboW8t+rPsm6tyc0C3A3N
cc3UsPeFmfig6y4RZ85Uoau7I2qLEkXlXx0sFNdM9WVSWiRvGXxvrHd9PmqFsVOi
2jcGkYaiPt0Ae5BOQzaxF4KE6cFOwRal2eg7ZFf1q5rkoBt8zBBT+g2hkvL1/Poa
Bun/4zxis2ad2m4gFe+a9tEb194ax7IrQIhO861gNcTqn3g34nX4Y+sJPDRTeQYq
Y9ujtAoMLREzeADUHutFDR0BhotfbbmCt2+umX5AWKuw9c9kWVdibqT4LP7Amw7l
JZFA+Jd2R77m9u25J49esL7Vb15lRHAK7bKUTDlJIfBaVdLsTQwAXc52BZ52gqrV
8ItMe+IRLx4WV5GYRgU79hmma2mwwoWE20G9SL6BUaz8DPyM6rotwLuQ+Fquwb55
k3eiQH9/UsmWqgZziMBjMX/pTJItqew1oCRy3vOBAliRz7hJPDX92sCrJE9XjRIM
RWfIldNg4r2bxP2OfT0doqfzG4X1hGT3H0WOTzXnykJBd7pPckgOr+93Gr1Dx00c
QM/UHSfBXeMNY/PhofZoPJoFQ3fSptCP0qmr5Dbo1eL5JyfDZ+V0J9pyQBOh9nqb
k1xhYIYVP2f1lTfs2jBv1uWcIt6BDtySBgNIavMof0hrawEaMSyK1hYb53Fb5xe3
4mh1R3e9GRgtodXU1fvXBNbxqFSGeHK9bhtL1XBej7wLVah8Ea+FlA5BgO0OQ09o
6xfuRNHn7Agpkrne1y+gZHt21M7Ds4jJpCrcBVrqAB7XP9hTLh/IozWZZzcVN4RP
iDBY/WSRGQ3ccfPKJLj6DyMwOmuD5jqM5OmOYCQVzrfGITSwWedadPYyYxMKWpaf
+41oFRR/qANCWbDgyWanodLcqOqmtaXGljfU76TYGe5z5SiEZDg9v+d9jk2EoXWv
nWAGi0HmHfKmk5INCMDcq2/DvpTbGTSjHVYJL1PoroGGmFjbjcQDy9dbL4gLMdLO
rIx0hbdpaGF01Wwh+XHCenFKB/A31UU889hKJPHdicNsJdw9EekTrb9bh8rKHtJu
OUui/yjEUtgqWXaOpGWj168QupxIovUSgK0zsub/hhxQ1hVvijwfMG3fJio8WDEE
/ByZxRdkj/xVa6Z9OGszfllBbbDPgDEK1hbVtkm2HAypRB02gH7fRTud9u+dWBsa
pDfEjlZ+uaDYAr/12yo1WZuiiEjEGFJ2DL5kKi66zCohDeBkMeCQLTxytxYfniYr
QPs3BOEnlSKbcCYExaEGkBHVVuZOsd7Zn2ucEUNtCjowWcC4g6q2z72mCVUctUGy
BksbRWrnKx9CYkbHqF8FDXlFRVnoisayQSv+x6yFLLgKI61QcJt0sH8GPH6bWee8
TdV3TgaWMhW7srXlzPrCWAHRf9L7jgTISDCZFBuB4t/D3mpz21b4yzZN9aGIo6QA
NH6REHDXXxOti/FatjbkRPQTsIgplLvmwDLPaHOLjqQp+osseY6b3RF1bKxBUCyX
6vn9oS3997s2gDonExH/AC481B1HT4eS1LdVRu6ara8b2Xss2MWPz1u79dunI5XW
QcZuy3oKYeh9dSc+kzY73lJgBnod90AE0KDr0ff9NV+ljUfaLSpmduCb8gFcf9BB
6lrBp3sTit4emZuH6PB7fu2CiAzeIWRtobauAMQiXnbLAKqTSwDGDhQ5gSPtpFqv
ffE7TUZVUXAdPC8O37zp+zRVVTDLy+fG24EyLpV0uuGdZ70Ld1VQqUwz4uQVjDUK
xubILCvwvXQUbpc/z8tJo439O8TCJiI97ey8me5z9Ot/k0+OXGGquxAv15UGnBh1
TIDJ3ISURQVrZ68qQbKIjVUj8CCaX+vAuEWs7KJargWSfqgeuMJYCf/d60PkUR9j
FblcaxYUHVc90fm416Me/+oT6B9MamyNTWY25x+vn9HWSg155Kn9+Zg3GMWsWkKk
mjirunRZw8RSktlQzKVlWqURqGSIy/ao6nyhn9s5zXf39zboewdmVovNlhRWO5xU
ajffG+fkjl4rjyzm/juqJOpxY/yhVFD9lq8XpXLRemxUtb/2fmVFRK0uYdaSt0tl
vPWAwlAviiKR8f9Wm3A0rFm83jtt77s7Uc/UhPYv4EPrACnjDlfgg892knDlDfJU
FpgMJygrkUGqBW9iEfhBcRhwyT89nMRx0tYGGgtoajJcBvqFfupQnUiwhhpskYCt
dH0eQMX0wKl8iHOUvjw9OF6ST27ZdyE3x6qIhR0Egqq6kgcOsgofjBvTKx2IwNZY
8o1xtj4jCfCl7tBgFOX+6eqWT+zjD3X4SPypYcPrWFecE4Pw9SWS9DuXrqmifZHq
S5FcR4FAWnq3DYAzp8ZXqelBDBNdQ7V0MGwHhBveGCgaGTC+4/vzHwxlH2tLmAbt
tXUefluIn390RxLKoyBsIBr4lEyTkijEZGVNbQDYinpDqVtm2ZXnKqZhnX4ucs5Q
QErrV62JiVPCwbHrIa698PSmq6tJEpZtmoSFXULNfa8bDBBYRS2deeQC/9VNTjWl
uHYS5pCNhFQk3Ls15+SEG076hEkWLXBDUGaqMNPWc+1ZxQPvlnjE7EGMTh8UTl6L
0+/2Xc/laUD45S6OPR9G/8v8ekUnFp2xs+h+ir9XLzz7DWo0/DZufdEH3URuHT+5
Ui40sFOk0LhCoU59AH9OeXj2LPdru7FuA0HX1bwFOl3FOUiLI1iWbo+JFF2P9jUv
ZwJSq4Yr3Ts6UCCgpv9lzm+lk90bdPtiB9rE3Vti7+xN50Izax5Qmr/L2/awknuq
MS/sSMsrofrcVhk5bl7yYyusTgGYgqtKp9Q7AxXRz3ryMHVNcn8M+GaGPb0zo3EZ
+VAH5UG4kepWoVA5fkM2I1yaMcgLAaNHfkWQ+dEPy3SEf2ixoSo/2yRwVFjSsUSc
X80WR0cd+1VaiimhAU+8jrWmw68qNGbjXFmHKug5wIfWiF/LtOEQkFfVeTt0y4X4
p1GXGXQ7DlmvSIb+UV8Dn7eagmJAiLGvV5gKGwocLkDnWaIjmVU8fB0tQeAlFJw/
yeAIbyFTotxWrcrpg/8wvFpWiQW7RRw10SJOMbwx0mNgwcW9LvHkrc8hJ5FfZhqq
VNXMFWDnQLuWJQBv9xhgCoXFnXqvcnhwIY1IpI8vxKM2ri75gSe6o6JT9rPd/OVA
9wEKgLMve0F9AaeHhRrLuYw3hnwXIY0HA/X8Udz5oTUm5qSrc2eF0P68Rb8jdHJ4
ptHlGBsWIcpRs1e1mtYVFwQfWZDNhWJyKEw5V5LJ0o2+LzruvYjdKIPxbWTvLMBt
+hZVdprQAq2jch54p9BakcuROXqi81QH0Q6B/jJgU3QT2arqRHMKzya+sWXa1DaA
4sKK3Qn3rXazbieNzHofUUQuhtQQgX4fkxKhp9vMxp8shp7qsfnxdpiI1TomPdnC
nmbD2mRyjAbJEg2bDaC8wauy5+/fZsxtlk63YmCF+qd+8+Py69SLSWth0LnIqPnL
eysVQ5hC/JoK/9P7tsgt2GNZOphc2SBdg4y2djfEXd9xvWPNG/SJUQoBd85PqHVg
1zGwibfh6nLOos2uM4py3+kAdyxvnx9UFHtma3PFHdecrl01yc362oU3MWTR6fR/
amWb1VtnXg/+ipYrRcn8+pecIQldbnT4TtaVeSfhWgcPKhlgqL048CbmBbPenTy/
I5TWDX/RGwhx7615DdHG24exATEjlVcbxVQdhqBzDVbl2rgOcYwtC6pvVzYoviI3
HyxT7fryrEGM98tFsv0/CzuIYqDDZ99fUaQWrasnOGboTY8ThxMhjsSCKdju0E+8
HP4LRk70l2tARQSOY8u04xSlKsLO7n9oSM5KslwuCefEVLD8xy06zyYfgc3+KY+Y
wMMIBnpkcid+0tgyWOvO5fXd19HorjGfB4RZnZiTwx0EovJ5vtoSd/uGCH85SJss
l65/ovkdj1iCV56MtBLYkWfe7G/0ZauV08BPaGvFO50V63e/mnPlEt3J2TfnOEes
9DDhjlMxalNRMj9G88mVKvCAiUdVPXDm3bSJASNnzA/8NlY+l4l9ztHPedIPGOZ8
WOmhh8k1bNrCQ+07Cr6qzpohsCyGHgJgbrD+SQuwrJ5vLBwtx/uR9XUVxLbYqzA4
6c1CNDbZREH65lB00OB6asxikQzJSWHnG3eD60z92J9Bff8INYaVlygRJuTxypa0
VbUmt9Cd95MHG+EFpfvqm5B6TCDrizHWi9nYs6x2OIx2gx1Y8zGZDy4PPWgBigNn
JBcv+V2s8sn/Qzxi5VYpyrhDni41Q2QajRqobwiqHfLydTzpnXOZGLhdjHURo+9I
qc2nudbtIJcL/bd90EXXyznpVWrF0qcSPG4UgcuvDptFO21iXQ/1sLALdooUyg9Y
WW+Lhsuol21qEmTLi0VwUaLDmiThDTSCjGusCnwwq+3kHl6h9JD3J6NF4b1PQNwI
Zcao6ExchrP179CvUCaVTtpr0LbRfLz8BggmvP42rhoh6rSncBC7YRwwDlhpLROL
DMaEYi8wsLfsSCVUHIaSQpp6sjyk9YL3sQWJ0XjJXP/MOpJuyYFSR6T0/9Ge19Fy
wYMWtHvaLXAdfYCfxINdNt7AVdQkx5EONxvkKhLwgba+FmOu0s2/JzON6lte1oXN
bBfGrTyDO+LOUd5QfjPTZV2KwVTBT+CxeQcgxID5FgWR6my9LQ30+UU1QEd/uDsO
3wXHghD0tsyXp2z1v9chVJ+e5LpD++FvXB/TXSulkpwtd2iy/oJHm3HATYJ7A8P7
yLEx9ge+XiOmeldfQ21NsVnYngGDymZE3InYmfFVuPqrSXTF+NFtlUmnnPHI3xOw
2T7tzb0nZxcrU3ev7hN/YH9y+hvgRg55UB8oMZdt84KlwyMQ5/Y7tNYaf9qPY/Dq
jxKBXj1gg2UOEgLqFAcgmc6oBGtFvGbsdzTWRtBiFTePsLPOQjRE+VoBjebz3dS8
FzACqBz/TzaDob+h2LCQKM+XCWTzooabtAWRShbxxf2g6xfJSbs1rQMRlDAbO/qv
nvnd6YWlhxN5YdJdalcwTsR+DwKoGUdkqzqWIUWG9VU3YFL3v2HswzEv+4opKOQv
dgl3fx86drsNXb15snrZEZgAQgT1dmdal18cPi+Nni1+AmZE5q9U/fYwJBSSxJfk
Gztv2vNDYYwHjIaPKfSEKu0LSMObHCc8ivwVZ9VEG1ybv3/JBYDRREOycc3DItAX
BlJgeOUKudzLBxb0PQWjzOTTw6fuQQK+V1T0lL66AOp1XICAkPRh0+HvTePU7T6Q
w1ypN/fPRgB100gTWg1qi/WFzzOEURE+8OcSHyJirM+ttfIs0EMTJccAKTYTUWlm
5OqaZlAquCC5iiu1lscX90GWYkBUKa9PFlYgQrSVodJ739PQe/2aOA/N/TjxGHeM
fj6JVRov79cWJe9h/6Fa4uvjK0O/oZ5Au24O02Chf1LslBGTCeieiL1PPu8WGjnu
dezIBzAhGuNzE4rKe7Ofgx54TRpQ8Ekp7BvtlRHWZqmDXkL9q3Pw7Ypi6ZwgFCrd
nqshEEXIikR92cgbgfeot7m9naYWMyc0o4YFl0tdJ7WL71c88AjVmNogKbRngDsu
NDcRSBsmZGrMM/R2g8EE0Jd98T/i8+fPigF4+J5hyRIBJk5etEQ/NxcTCkEbcO4A
Hcf4WGjLwmw1ls6sunBmMXPXwccl1CVDXxgoHmXPGizSV9Z0teQE1nD2zOPlc/lD
1W+/dQ6o1XdUEZJdI8eLbwO4PSY2BCb8wDUMPtN7nx/ZZv4oK4ZiT/EXOpMpNQKx
fc7DUqmA3jm1OmfQHxgFjvvu1LKmeYD8LEx5USz1ZqOWOUB4bHlsgiaho96ZSNgj
tgSi5MNffuSmRe+ueyvxYEqlBksogLV4SeJZnay41m8sEyixGnTspH+dy2h0FvBY
dhYt6BDSom6zgzHFOHqsx4KSKzq4Rg+X8yYZQz1RDJ/x4Uxh6HWJC+tu6tYCAjNK
3NyK+hSL1VqCe9jJI5lP8Fl/JswG/kYQSOPaRKZAN68nlb3mRsePD4+Ou+4P81j7
/dlX51sBcmzBkznv14Ic5Y4LUjJU4huBesiMBihvWUsev4EjvWCuivmnuBzV+MMF
5r1oQhjc2ylqUc+jOKzzXXyBzZkXdtW+lZDj1oBaHy1aH4eHfCTOJk52UETlLvqC
3n5dIpvedBnivGR/vIyd72UI5y88IoS7M4iprCuDRgkBxl5HIDt9/YsY88X+Z+Qb
iq0SilMnUfVv/0//jPFV0ELxVTLhUq+q/LpnX3MkU/Hi599kz9QTrwnMyxtH97Yt
Y2oyOI559EnETJ3mSscjJbpvxSsgSzmfHzRIWMem0IiaTdeIwS87ZKuaCA7uYFDV
qBGO5v7WiwQH1UKLyUlStb795G5ef+350lNHCg7KE6DoHt2znINWLa0KAj72BlZk
JWxkqTnmJi7UWJtPDn8NTmTjewqhRP0xMDNkBAJ9Yu+MjruJbq0/EDz6y5QzdlHS
wUhhibtFzalV+iQum0cELFn1qjZY/6k63yeycHuvsW+4PASWQuXLEBDShPnY7TAm
gYNR2UtUn3YPyO7ZFZajklO0m2pDe0hH5A461EP3k/QVxNn/rUMt3p2vTx7d+SNB
qJiIPfcQn3uxEE5IgZ+tPTbvnkrS7t+RCL3dje1m5fmdD8EFtHyuMcWcAbr/9+P1
Jms9mKB9ih/rBIy7wI95e2nyokfy6nmj46rSZuG9RR6KHd00Jb+0VTUa6wm/ckPR
fFgLvdyjlI+kk5RjFQJ9VFltUpSZw/u7RHbKbHF9vmldxbe7Ik6SvZX9ndpd3CpN
acuW6GtYv4cCdPwhedHHbdWAC4ZK9cWZ/8vs/CUAxEoJuRGGOuNtLx7cBaceKkAx
AuytLrzebKBUu68OJ890orM6s0QG3hVbrmN7JQzPdLNyZUDe+gbfp6CNlPIJ3LKB
seaUzxuUeFFiNoXqQKblgE/ev2PYao57MD2VZKdQBBY+9FoesV6OjPvc1XkALtXw
gaRFQorSFrSw4w36YKoMIlGUC0YWuiltz11QB8P8755UttDVftNvgNrkRxkjbq1n
lhbCVQCNRcAbXfMDXD8/vnffGczBkxEuWbU9LKm31+GB//H0mtjkgKT+aj25ERDg
R88SFKW4pSEF/Z22YOMZy8TivlxMzh7y6pjiVKN6mSQHWwx0O4jwADB+x5QJtbVT
hU5E03p4E16YxHjDBvlpN1IZl6bkbepJlqwu6hHXNRmpF4z6o3DfK83BQ58p0JM8
3i/kp/jZzsFUMegAi6AkicsQFs9+U6nE45x5thpxPRAzWiMlYuAUTjKAngE2xzP3
IlMQ+80ZqaWgEFz0UOjQEUVUeBdlofQcdoj/ZHYVFtfD+1vo6LtK+x5CnYtEvr2m
Sn9LcBTEXKYmvkPhxunD1qjVYsPFtPEoEekitGVYuv8a4v1+eNDr/9uO35QKw8HV
3i3Us+LST8a3wq7vGshMoPBWKfGOKnXPiXnPiVo37yOOMn9E3UxuD5yXzg/RfgV4
Ura3YkFexC53EYLR3caIDBkgpf9YVOHh9U83sKgzuTWik+fteGeZ7UgUl8Gdgoey
NZ7uyBeTy/nlHzg5163s1FaRPdu3yb+dE8/SPWCxxEUE+RI+H+/jTlwhqz7hLdbV
Bt7cOyZs4hjM8e/Qmh+uUitMBMyeGUvzKxPdftJl+AWxcurVTPuSGoH/s6sGR3Xo
K71714vTLQ2bUCoAJbl0Eeuj5v6Hua77irp19nJ/YBbTIHNjMfX6FVujngYEC1he
j80k/KwVOWi7R7hkjktwC1sysKSe0FsTJkkleFRX6BXkiElHX1Ai0BDJPWpw70oT
zUJip5o6dgqfK9sKNHbncSAoSfudPJuL2JfKmeqn1VQKQZq9IPrFSgjHeeo/IP11
I9ZtctnNWUN6YBxUhCkS5/7S9Vdu8nyWmgJco8Q1JfhBCpRSRYVqOt8l/QVYmvkq
ZcfrnGdEPkYgPP+wbZRP3hOEXDkIxZxG7UopRFB9bWlIECcc9HGkIZlV7jmerPX9
4HdGwPoi0U3nfLmjLV8Q/E72Q85Eu6X8k438C6Iz+vXVxCdvRX7yGrVa08PPf/mQ
fxjD2qoTXu4Jlx3BFr85q+M90gB5YuoQ4mNqQh3Nr42HAMLtwVaMSThs+3CHEU1Y
hVOWsqiiiHuWKHzEUWlKbYWfHCjKEjL05cinyURnTkOYSVIISGpobdJOb68wMSAn
xAypwR2bhNDnZI0FiJ0BLgHV1DTYS7eLvv0tpaV0aCuDn2zOy/+YpvQw0A0BZiWv
ZoRD+dOgqQ5+f1Cpb6Hy/HEBJz1nlQSCYCLVZEfZfED3DmU54vv8N1/v9LxvVwVH
clEtHSnUtOiPhAAvLyMFAzGeijnNGxRuLzJfdz9vlPa+sLQnuIowcL+RXNKy9hnU
10yrZd2OwyGIfcBp0pKiFti2hL4+p/1JQVL3NlAdd8WI04pPKfem8pdrtIbR7jBN
USAnZ8iUzruZe7PyaE1PtL56jxYBaCVfWc851ObeMS51E6IhtHUjGmGiEq+hGX+D
FEgf51BTDmFy8YQEvnfBUWcpP32z6lqa/hXMpsI/Shk8/mJqngr735uGTxLT7dw9
8LNZyJhmXvbwl0xQxZqhPvuLF7L/KVtKdyscIR8lVjx0nyUEHJdobCEwEJKATPGF
zZsUlvUqYmyqGs1mr2HbWn+MKW8shf3+UHKW44E30+96mo1tf7Sps4C0b1S0UXY/
6ng6Fba5kNZ/VX7pU5MtVbcLzQ33oNVynjK5vvWjpKKC1RKH99L4aTBhfH9jH6ew
ws6lKdlL/wwczjPzKyf2G1v2eQ/fJAPcYfpYrMv1yyEqmlZXlhEAp9ddDNDSpB8S
kaEnBclpansPRm5pqBNRi1d5slCm2W7J12d9eiusGU1hIQ1MAx7XJJ253Zmwqkr2
YxDxjzbzR+03mh2QzkG0DrEmGwZeYQqs5Ap+03EJ2QLz/a/RZ8PZiSOAnUpJgyzn
l/OmvD2XF/5d+uFJtbQxNLCN38lsTkC4+6umO1XmveDGvoQsxLzxB6LMWBwEYKiF
NbdyFzhlzvxY5sAIou3/AZHBXuKPqyRrAlfV9rPjp+CF7gwMiqRPksK9gW1i5KEF
PKlHD8rj+4hkw+cs+bWBIeq+0FhoAAr59Eb4cZeTxJeuPl347A58qGx89JgFOc/l
THrUiiCtO2F3v6XjsiuDPaL5T+03fLF0WirNcfJTTVkv2aLjGrCr60ZF3PQeg2U2
3NhYpyyc5HNOhTLQ6zvWn85PUqRx/wycFITuQqvTr6nQPEGgLl73kfUbxTiB57YL
hR20b+FcazW13piaBycSuA1FO5pZgmdy/WKXDt1wv2+iAJGbfnLfNs07BAGNLYcb
4lps6U6xWhhv8UjAzHLWoaaCtysKPqeP3NlAkDz+0LIDo9T4Y1aF6dt+VgknTBvb
S3qHEiS4xFUlui0O4SChu7LEphOvWFV4cx57BLRUIsF7/nteMQE0RpVsrLixspZ4
FYbaGhngerOOkFbCUGp+A4cJGY/ZezQKT2fOekSVToNOG/T7XbiZ6YlkYRJIrtoB
7twSO/mntMmPT+mvd0yEcPYtZ3nOX47laBIwtrHXkJbmpANKUqOa0ryAtGpKjEtl
6voI5jDnpzv7yDy89tx9RtGzg0R2zypXgNITSN+4WxjqhXlK3es15KaKNAnOF6+p
1PKP5jvnQPeL/LkldMyt0d0RyX/vwinY3ho4mPECFIijkYtsUERXeCPQrfG6Igur
jC0s69dhdBekTlaZ+MsZOz8MiGimYZWWiOa0AWOqLZDaMHypAt7e7WBy1HRcqK+S
4B01cTbfsTS7HjXGzqaxHOFcFM7V5ZWd9URYojBHYZzjnvr9oH389gJ4dBzM6gM7
SMA10EnJ9zRyE25zmewdxM1KiVJqbr017FehHc9QRyX+A4kbc1XGCjCwLcVdh46t
Ftrg8JKT1LHoSprubMjuXm930n4yN3pl9ddZb/iN0xmJqwsG5vNjJzoYnLCkCPhc
F/sTcsZ+RgWe4Tn6u1ItfgggA2EhFhqxEyyAMRsyFYeQg6J9jRSLQ1w1Dh7ccIuz
0UcnovFp8ZNHxGrHfHEZ3hAnXoCsr81twJDe3wp+m5I468QN6Lkh72epk7qjA79i
+2W1s9zY3nqlhoyUbEN93yqXC2cD/3GyVobp2v3BBssNKyxicb6qaHtT741Gu1Sg
fnBtWwzK/3BY0Fh8K0/KHkEJcbr5SiArvhTNt4kKc/J/nnTHIR+9LkJXc6vle4DR
GDkbBcnX37OmPa1rq8KQQALW9Ds+afXxr0AzxZy+bw+ObiEEQU3LdPv6cAFrTHPQ
HQItOGNgfvN7OkdYUnjzNH9cmcGOu8+Mdi9XabL9KavHp+Bdc7a/cutEzZ9Awwmi
f06wSG1TZhmhxNQ7327xgbVIpzVynw+SZjiFBkn/rVgKODSfL70RbdtfdniHLVwl
SdZgBbtt9PtUPJOoAMmwEu7MAqtN/AIHJDVsCkcd5g0l/bit80TSfRKlFKdbICFC
4fK/bbHxojfISdib0sLWz4EO8LjvOQziI55yHaQW0bcWcuWcVfQm4y0VjFOlmSQ7
Gr+9qDdNtDTJBtr7c9WCJU3hMqz5ZCUrw3/bezcaW81VcCR+ZaYYQ3ykYO5ziZZQ
FUz8xwJouX2PsiGFzMkl5ktVXdeoZ6/V3V43XuTZuUGZyAzhXZhgP5A2w1Q7hUtR
+GLrda85QAwbfNOV1yANguBlJg27Y59ZaUJxsCqyD+8h5evotjP5pIe46r0U+fYC
z856z0kAkz+UX/i39/TR3+JGlFIcw0LD2huEvz8r7TNM5nC0Dj8kNanZAwUSrbRX
7wmwBkeUsPb83i4kKRYJnsg1clf1dQWjS0RVEb4f+u3HPKBfIo2m97RcEhAHKG9u
L0m6D+Pzy7WKLqRk/+90HiizAFkmYe2kkTWCpjy36LyQNfD6P2xmux9xtjNFzc1/
61OOR5STGlcjb9QEO1p7PAjau89ZiYcNeludrZ3oHpbW3KeKMKQuxNJbWczfbjiy
HVkdTMCODRDOiRTXBSU+C4vK8reAr3GoDhepAQDgcqpPXPvm1IKEszPOI6O4FHLF
AT91AzfaK+9rZ/5YjwoSxSeG34J+STgaAoX8gA8wPY2AlO8hf9r5I+KHqzRcI3zL
2zwgQG/Ria191VWTy0Ew5XsrI051bNcl7gZfCKvv7yNy2krvRLK7rqlqZCvH6L5F
6s5yZ4Ffd25U0Ol5qlvGoCr25sjymqdtKO81WHpkPBRpVBzdzXP/Xomyi+4eF8D6
0iLuvgpAa0Q5HchVby/uAmrqCFmxKc9jSXDMU/pWF22v/4rfgxYwjwtUhkWeT7HM
ZaqIuTQRMhQqJAKBLZwOB9F9ldmNWjC9pBtmtsnYWvMK58X1uFgaBgNXJjfra/ac
hc2w3kpMvAz/FEa7fEPDH7BaIxrcYG0EWQ5IQJsSsnrYQhzekLzZ0C3dhtK+459/
Vtw6zdnMKUfITlJ5rW2yEwbdbkCPMYaigo/79S3O1f16N/N1bLo94Q/1LSLIa63m
ZrruESf0fk34FZqknXXMh8kmTmZy61pHeTEL0oehMnnMmcuKsGzVielV8IFcISzE
PIyMTWjnexy3h2YRTOzx8ezEMNj9Fm+fW2d0g7kDZ1YzZeJ97/jNzPJErLwJBf1E
craufumjeOzpZn93bGjWj+NoWAV6dCd0+gNreRb5P4yWvgW6SMS4AWGlqfTeXRCS
AtDAPzcmLfHoT7u1RMcvY5oO31aAfkBkwCMnSzT+PAxydnXNFgnZsz9e3+6NV0Q2
djIvIcHymEbFEXc/tZ0/Q1AmPtOx/neDyWW1f8v7kQz0GDITzDEw8NVH9YnVpnjV
DzJlxVilEduD3Fd1xq0IDl7XS7/FCNXnMKKIoTV1L93goN7wFD8JW9jbpv6tecKP
yJyNI0HbQKG58QdIgLiAT/2DJZiKSDeZXp2uqIds3hPZe1R4l336jzUet+yFcFnJ
tjbf4x3wF9B56Q5GrR9F7AJX+oLgvVUJoD/SXd12Qji8yACpVVfMpyvfnm/KB5Ti
b4uQNDbabyeAy2woGN5HHGhysP7UYsNdRcUS0JLu/IJHLka3sWNv5S0P4aQR3I4b
jKn1VObFXbq+uxDPzOF361zGevRfuCXjwyrnjPlKuQpliD7nHqwVoBUg6V/Ir/d2
v+Sh5kLV7SlMWsQkN5DaZWEHdt2lZBV2dmX5TcWZs1ja64wu70uRPTvp+WDIVSqj
zK7KqCml9S6UwYM3QKzzrdy35gWzoJUjSEbYkIzunXJsbIr9FqD1YRPSGv1fJInI
5UTLrev8mV3JFx5MebhTMxc2EQkRHmtVjtLC5kpj7nil1i2a70I6VdfZDaJBDM/A
fIxHwbEGxo+BNNruJbg9lq0fgChUGFMwsNgUjbCxzOijoaMeU5lcs4AJbA2iuStp
8uIUhc36NYB3Q7MMa2X/4FDJLdujI4Tu6sHCY/IExvXROrnpxIQmAbbuP61JD8X7
7Yx4RuAdgZQIxtf2bu51Ap7ctOh4/6PrU2M5UvYsELaK0STKsyKi/skfMPoLZn0P
FRiyxjChrdVpwCyOqGHGQ+TFhDkts1YjS5xvMg+47VR1F8aZRHm/d9SCUMVN+cPK
iMvPFBEYw1IUTURvlo/VES90bfFgY36gNuVgUh/c+vPJ1HJCSKGVL0YgIa1pPb6h
j5MxiZKZDJ65mN5+9/FsTwEOqfM8AtAxczR8e2p6eVDbP5+1CIRX7yFH5ft5hh/8
g2nh3ovwHvcBjy5j0Jv/95ZNqvcVJ5Hl8wiOZuiZS4TTmK432wByXensC4wfgz0e
Z5LMiGsEb7tdbjO8a9tzL1Qabbqt1o+BDrPZSvuPS3z1YBocFSPC61FSSDDK3z6v
rTjuk3pE2p+lP2Pdqpp7GwYlpYh3TTv6f7T831XJ2dhyroaAn8DM2Plm74n/+RC6
QSKpi/ecZExfkjdudOiv42yBCIaTZ6kf2m0C+iBXrUtJ7rIzLckZlbNLMUQPPg/A
3NvyfNbeAFQqAMP92GsrxWj3flT6EJM3Cv1x4KWSYArwnrRI1c2eSR54PoIrln5r
ndEaexIpBvlyZeIXTJwDOGBrDncxkbfIVupP0+DUIF1et+WWhZ6h3gMwUlIEN/fh
FXEK89uFkxIgxRnAeLs4lNhDhnef2IqMnp9SrbLO6yrfezMRdb6uouZL22Yq4jiN
w0DpZ4baIaekpJ2TquJWXlU88tAUhXlP0gn9fbzcoxjgi5t5WoHq8t3kecyNkwWr
G8/2962T9FLn2k5Vs+nxfgr84gRt7UtuySI2EFmx8RD9eysu9qyz8vJi+3Ky3C8s
If9Io5YM38vbde0BIqpGlmKRD5qq/JskCiAKV81dObLsBOwrTmkddoZ0eBDcLrjs
qdeuO8ShKEF2S0TxpC24yJEqcXnD/e6hAWu59fhjIpxfxvlCWCeLQqR/af7VM16y
X373dMmzTBnvSICkIcf8+QifmSOutQv9QuKJAwvVtuRTT3RwSscFDUSjqj+7uQB8
tv6c/xI5S9qDUjHO5aC6AvoXS8NqdqmbTa7QfzT7CZRdjNV6syXAGWSPmMZ3BFMu
rpzHjtA7bFd89gbTMoyzzordRjwhVzmZ/E7aYrVJpAsoBhgrOVj38+ohYRTeE117
U+BDFMp/PIRJ/LX4NGAX27AC/Bj/hJzZdYdfnMKjMhdpztPprGGFXXmo88GuGFJ3
gjbzoYjkjppPngmXsEO08uLXhDUFlReiNtHChLYL6JL/b0nJ/peEgocya+y/YL6/
B6hWCBuLaHD7Y9C5mNoepPqP18VBArCZQ7lDQSkay1yCun3SfvbrGzm8LmZWTz1v
xaU/Ijyo2ZTHW2D4IZSrszfEYc1z5SmLzGzpsxpj6Wr03Gd/DAkawlOurSxCplyR
NsmF291gh3wkAXKPJhcOCGiNQHoSyQ5mVHJ6XWR1kG9EnRQWI+bFqsRZSKfU5ssZ
w7s0qj3u4xPgeND4hqMunjD2YJnvIuv/7PZ1Ug/FW2TAKqJ5FNlIAnIYVkCSe48+
pphtCJFnBdMYSWmx6vGwBSiufGpABFlNgW1pYOmCponM+S2hBOoRMp6mZLqoHd3e
r4JDuXSOPyD75xtFBkHTAtXSMzJMkR0MO3mrBt5+mm67VcMpu8eiD7mZv8P4BEzq
UD4uTEKXIBYa+m/y8/8XocDtYJFrdo4pIZ5p09l1wSw15plDNDsSR662Tbe5eoWT
ZHDx4vu3TYCx7FE89ElZUKiIKanfa7kcJcLiEPaWUPLbGcM04r+crFEk24F21lYj
+zkxNpd5iukR7+KnUVfxs6HtnYJXhOEK8KYpSHrcOz9NwZmF+dWV0kvz1qRP+NLb
OEKrO+9oIp2+37rcpSSvHxEILKngrTDkxTff03uBLVgVF8FIG66Pku4rC2RVNteH
HsFbPuPdR+8dI7LU+zIPUj3twRK9yV13MohC7/6fUNT1ewheuzUl5ywy6jdCV5nj
ejX0Qp/10c876MYOg3iYZq6xsUZFVjVWT2sP49i6rv8+qzSHJ3GnGwW8BR9RigxC
xP+89ERYIS9sLTDfcTmGWpP9vhSP00kRTEPSUL6jFWY14HD6I1eWsIYHY1Lst3fB
/4YKiQJCL54tcuf54rGq4Ra84FOhPMd6UkOJYKH/k7UdCpD0rQej7GRElB3zAHJ5
TcpiS2HQot3YN/raWIWtJxlG06mnYiS94x3cymnFdKtcpYMT8FAt0aSrTvpndEN5
+vE1MLQ/830HF4sDp/2ENAw/yCHo0LXVahYGw8XKByH+XTHnChDyzcS+D5EgkNCx
87kCEIEgNUMibeHrECsQtc62exdAnL4ute0skJoPGp6F51JDlWib/Q34r8jpOj3H
ynRoMwY1NllOEsMw8hnfPg6ZgzVoND2EhqV4Cf43DBOLGT0nMIJmIfs66GtX220S
xN0ywB0CLcWGnCENit5/G8orHjhv6IuLdeMGatU1jy/rK9H7tiLC0O+BHEMfGn8p
anC2JYveURQ9dOds4ztO/mXX7euG6MCekXvR+h3jfvk71br5N0/IqngWs5hIoizV
tQksnIMxdvKhJGfMdRGJgbJZLt0qb50sB8di1cdGu15GyNdaYXDflYDWDFMd3Tc5
LBoyadGt6NuT0mE3NgBWX5KBga7zCX1CnA/0xU0ywZKlHswZzJOjA4lcA2CjC9wC
wr5BBOIq61Wu2s4/qsK8DsptXDrSq/7kJ0lrg9QPyibBVQzKC/H+GjqqyJfWz0aJ
z90eXbY4glsejl6hGgGlDkgFlp2B5P4enWFxCzrQNFn9pvN/pkD2gzba+4Yx4C8q
w/3j/6xLUutodqbJT0sWBhLUAbFEn1nL4XA1cV+SpVb3q5qhAqg57AaYzRMcw45w
0qWAwmQSBQuCWeNuR0+c7Slr+WvJLkOC4tGMOXz7KaxAZH12aeSsjcrZydhjgOla
QxU/F+7XB+rmRoEHpt3oQeRNXwPHHdSZuSgy8r/8aGTQ/65Yl9rhRE6c5x2X6dOy
UhM+bxqjUZe+2yEEqHXwceSkPvSqPOgLFTn0isYxcMCeo1fC3up4C9DUMnEV0A4I
8ac2DFAPlSXMJX3nw0NfeCQmdFAo5TDLTpgcTZGcoDS2wlphQno9p9obsNXZjntY
EnLcoLA5BVnuGpWmznQPMwtssyCgdZuWXjKiuzizgzoW6cR3Xw9MiMNWUIZTMMsW
tj/hWes2Jz+1GAaZBfNvoBL7YBv6ZwiBzBz97YCU36W9J+OpGqCVMjrmwhe4BO0s
NGL0jDZmtrVRQy8MbH0vNzRN0XG+AhOYtKuPiS7Fjy5TFtp+USS4DlU9uvqPYQP2
sJUoQuIu/WRXtUjr18pBORxF5VovbAPU3ysJ6kHChoh0KOQbOyuQ1o0iL8063l7v
0b8JbwlC07cnRZqF0srDeDoXTyxXyFX2jiwTcgpfaVGD8TNGZHI1+w16ZTz3+1ut
yEJpJXbH3VLE0JyMAQvf0wuQOeL2COJlnNMYTnGRGp+3qUkwKTCitRQO4O1Ay3wO
DFOlklWrPyoGQ7FwCf043hOMmCrBR6NjH4ETzFKsGgMyM9ZwLnM2kPR0jHH5eSeJ
PF+RwiSLRvHCSbx61uj+qY45XIIgjKQ6wA82x0zBVWIKOfqqGP3FlJCTve3BnL3Q
ZDZx+vfNFWcak3L+nA19JF9SFkpP695hMVTel0GM8A38m2hogWGyxDAzduoyG7qn
AlHPpMnSxPbrkNrOt6XxZJyf9YpILz95DrjZdmWYyNfB3HH3X+xx8aTwiUWR5e6F
BVph50ViQLCZok5nTbZf5DGkA2TBEhz/235Du+3Sc0O1lwZPka6guZO+E//Sq/Sn
k0dQCV+xjTOCOqOiCtPPQkjOV6m/J1IJL1qV2PvLyP8W8Feb975rqkU8o3Oe7DJm
f1FoMbkG1M5ZvjRurx7DRYDnmZUWkl+CBn6dYdR8C1KlWDnPUe0HqDMo/9sQpH4U
1Y2tLjrmYCx6nCCkiiCRij95Pn3RvHKXnwzok1SyQg+T8lg0FZnHE3LyhuYRfoAf
x6pS54/bdYBXT0DraYzRcJvVaJshjYD7M5VRR7+bws+to7V246PzonxJq9HvUBgE
16L2Ds57oI6TA2MyZ3fY2imEa1QFfzsZEHL4ItiuwxKr4OEgaezscTGAYrwv5I1p
GGxjY+/7a4FcOElAWNHJ5qe8cDGdxWBpbDbtx57T6NLHYT0irCDEfoZdeO24jhY3
Bxcze6LV0Y/5+XUhXPe9Tu6gQBvXf8tXhUPs0LQT7H9CSC8qo0Rp8mmy7Yg4ITBb
ydvqJId9LWmPmQCglLOZlq2gq3siVV60V2EQ7RkHsMeTQheGChZylSRsZ6sYDGgM
XlDSofzgQ/U4+YCPdD1cdW0UaCrS9p8F1ugg+xxlpxx7nMHTX1TfIgrtOhnBO2ae
JSt6J+c7n5CICtcaFClzE3T4KV+bykyoD70w/VLASxcVg3ZK2hv1Aiq5g0GvqyCU
T3KbfRpfAppXBr3NRLT1KhEAoB/udA8MazVUiqG6J+sU/SHmEnMa13U4bhgLb78A
/+2cJylGi7rmatZ1Ii4XMfhPRZz1yzoPt0RM/+FW4cuxqLpXEC9tzNBEGUIP0yIx
pueM8jryYuKz2r9SeEccxySrWxR0MngJzBbmvy0kSjRl9GKD/4uFUZpcOVkDNqYK
atjofs/uRRBjs4YC8NrzVWXL6EFOy/ibPrE8f8Mr9c5uQQcNKo8nUSvm+UPwuwwi
x1g0I1N8ieHrt/iorEh1l0nXkmbiyuJzC0BaC1fy/zSm5k8RsppLfD1XRYNg6Pai
c8VdzDRe3+dxqffzRH6H2LO8XZON+8akHgIXvKcEiRuhgNDKRPHGbbt1YKhGJn7p
UilODjLcdhYDlTgCcO/ro0l0AET8q+jJU3rFjWcueCGps3QoOmbIKdymjGVsMupK
V7Cbd8r0By4gR1NwlzPb+1XZ+gg1W2pOujmtF4U21dV8Ck3IIFnbgIEiMEqHXHCQ
8Osvsgz1CLYyj26tXG45V9YFkHMjaOU3lBGQp4UqrFUstx9jrFAsxgR6C99k/4oe
6/pjxgEyoWtT7dYgHxZzQEtIle0pDpyUXpHJV027iiWI3qzhvLa9/rCVFGRupT4K
whyB83AiD9W4XLL4HAPUPM5wzSbK6tBHlDG7TlfPHGbSM5NIgDigRROEp3dBFLYb
STNVbg8NOVrGdGDKJTZ/RykwELPwoKFXs2S0o5nfDCQvbk8Q63VadUYekPdLRJAG
NA59Pi4beNF8cevEEBL3F+2lNOyR7iS+BgF1B4ZoWXi0kc8vtfM7b4Gn/eVmjbt1
/U6BPzqxDT/WiZFTI8ZYDz4zs8sBviLCkk9HE5AtSZSwzNqAJlbksPE734/0gllE
oQwz65rMSP1n1cGUuBkrIJWwy7CMANbJyButjZODIP76QehquKZp/hQ57jnLuMjO
jNzTLy1QqN0t2O/m8anfGOZYUwMmBjdb7QsNUSZS9KZUhEseC7rvtcmilEDEmOQs
C+BQ9A6ykXN2wSFtVf1egDxa+4KpCS7sejzNHE7ce4FfomIyovjZkkx9mkLFjcQr
fCiUwXsAn9m2ryIEojxZmY25BHfM0yGDfpwK2bDw1Ia6WcQv7xPvVWnWfOCxHRO2
5i68o//4EIB8eQVvkvsv2X55naEiVvk7v7n+5svcdlBTM9NWclHQchctdtVo2EGg
8TA1bLzVP0jMryNJgYx8yceURaOyR7wx3ULhDSuSa2j2VnZ6FSsPUSllNXKPpu3c
CrIqMXtB7PAL0sRHrsxXebtCSji1Pq8xKmvuiqpgYvSEO4pOodHAIU8WpLmNTB4c
SlyjJOiP8DsLP7fn29E6YfnSSDKMZ1gbLVaGI65DzO0yDG3o5+kdvy5e9eemLVo4
6jzPk9Cyw8OWpsW+SNrzzdfmv51a8RhBKDq6jXMZNXlUujeayRnN9hNIv5CahWcK
HUmNl9wiJWDwmfyMEbgfGNEWezQzHF6Surept0EoiC4CObsJXA0fL3eRCqIcgLMk
afKHoErJTx0vRWn98N4TaqM5xx9/czXAVE9VyHWqb2ERaiOk7pwr8Rzmfc3qEzJo
cyEdD01aWEftFs3hrzhGyXHocBNRUAueQ5Ovz5bCBIDN7cs+kxi9nHrzxtm1kWS6
YwLa6kgFmF1ulhYSxzeQErSSgOM6GWI2bDz4CPM3mnGUFyai38sCrU0Ji5HiJq2C
EoVVvGnODj97TZ+ILDQwCWozsTHlE8HLttRw/uZtp4hbQIgbKj0YYtqKuM46lQtA
HIVXHQhE6VbwD4ytRC5fKTH+YHvs5ZRK3JHNgfGBQqMIxFQklE8r84aKQWddxqJ7
2YYITJeb8UZsLCtVkB15rLhrH7qiz6Mvo5C8IdIsaAPK6Gw6PjM5PXMag+1nbOmX
5SHPa4YLQtVDbHKAd8IPm/JHOJ2Gzmhd0rM1l3zLEgREfAW3tsv0qijdDs4YgTAo
liFL2nKYEgH8Am147b2YOzVkzIJQY8DsxT49hvYQJxeAUAM5NzByMII12jJ/Kz4j
GcJsG7CGDi1j6aNs5Mq35OK+1sMeKoFiHFlULbim9OObHeYnK3LoTW8BI1YFTolL
SP7GY7RkpGYcBpOmNdPNenyS8Dd3Xx10c2673rkIBgFjUrIp7WviOygkpv248iG0
DgjASHvHInonSUekDc5y2X9Ahh8GQY+jw3rjxSinmaRTQ/DDe9y9eDkQCYp5dbtN
Mz5VWCcvTpaXMiv0NvMYHIs7AlljIJLm9wPuTO+1VpRl4sKjU/eXJ/hSD7g3i3Cc
XwSwMY2q2OPGubOJFYDlp8C3Da+N9ZzpI8y0VzBY/O0qc0Mc3ib9bBk/C8/E+OpA
WPxCpHTNxUEtzINFKkzR5wC+fODGZAE68A+o/38HeQ73XIEAwS+ZCfIvUAVMkkDC
SMtfbKMW+Di9s/qA79ECVuT6E8nOkJDPDcEvGl3uCwTB/VT9oHkRIS7vBeVCuqdy
2FnRJIZtLHfvnZO9A0J3YU3KW7RBSREyjMd/Cq/KEDD3EkGCViut/d4klWyfESKR
92U0YwKPbTaYdugt0NdGNZ9qZUhaZvSfDL5j0AqHOExupUdn/Wz2kQBTJiOySb+O
taXQfOudbHaAR12O2gV9WGdoo6lPPAkTtuYOmcQmMiJHmPHa+mytwptn0gDD0tny
X0D6DgyMPWg0gzwupgcMUpYl5jWulA5+eFopPc05lr31dHmuFrolgtJmlRUJpBcJ
Td8I+B0gJjiKIMYY1vQQgdBMhHFCC76jYBzSxn+PtQlBahiy9Z/QUZ+p77X7J/B+
jluvx4gOFLvZXGoatrUvYXEnD/ucSsuCz81MG1bcslaaMK9NhGtFtqa2tiqbvtWT
eervjBtLx27+NPp1x8qQu4zuHpx8r6oTtbGhRVtfmuo2wzP+YSzFQH2KTT3Dntq0
9wDnwy6TQnMlS5A9xeo9OHmlZG/Frz93X5VYIYxuIVomUJ1SfPgojfUvk5a5CM2i
wUr209KyOtdOOIdeJcdIt+tNSe6nxSresZmqD/gnTFYpLs3AxC5B0AYBmjk3N+7I
vTFotUabbfsaGcR/Nq2Rxw596+DzePUUjuOPlBgkASu27DQYWCrw+C7ox4AWyQXY
cNJun0XyxB5usE32DDLXPSXGjpR72Th4pDZCRrnUcheh/XObvodO9yZOVOKooW7T
frIF5JXjpX3Gf2TjTJRotvZw17ROjYhkK9e3iRaGIYocrOddJCXHcj6/2NZV4WNB
0NeaIpJLkcFcNGeoM8mNE7fc1CSFQnptTV2lRX2RP9XH9pOtJLacNUz5qfomvRTL
HfTIbxwlvHIrxTsROmJ6iVz5fVefNmV9DbMov0vPvTxtqaPzaXYyxwO4MTDL9IZg
i1kY6SvVphN9bLybPMq0mH5UgsNqBXETWpErV00GzAKlAmWe08FnKx9zZWhvAe/l
Ia+z3N0c2wPnGijqG+wCPrIpAgn3kfSXr/bqBCK74UiSX0TN6NJu0Zy83VbEqUn2
0F7tGMj/YqSkPxDolC72uwXFp5ScrwF/2DCQM6kEZ9jLpa4N6/34RXf2MecuzL+l
Ygz/v3gpXtk4gBHbla4HmMO+smBcTYNJ9ES51m5S9fJspGc5rUOJIzg9HsTIV+t8
L+vaySQoC61JxZoD3Em2U16vCZl0AqjaICGhJ4cbMlaHO1SlX+/DpHlGGUB6QvKa
GWx5OkKlp7WaTvELn7iumKG59rpgJkJX4Cz831B8DSCPHNlV4/1i4WNUHQq52bwC
tA2z8ZYa/ILi1RxYWjZ/WBYPlwTy8JYvBsKmShSQnvyNSsMywmon5PWw9qKGKZMF
2ALndeUk0BoM0L5NcylMimGFHCkLVXEjdVTIo+bLR8OmDWVF7aylsG6WtGFn1GJs
V7d+8GrP4NwO3WtuzBvG4GTUWCGexz0eBO+SIc/m7E1V4nyNIRhMGObrLeGIfSQl
Vj3oFjFfa/eVMrHJIXMQxW8a+Yq7ow0x1NNCKkpzPQkIqK/8vbTtFVS9bAR7jtLt
7W7qYDJMaSnI/RiiiBIirNd0JMNiilpDsFJM7g6SJ3qtZNeb6YWhAmDNCubvhEsa
g0FIPUdY9MTKz20tZTOzXLF1d1fUU4rdS5kvVMLbQtDCp2tRimAR6QZtr/M8gaIP
WuPDQMpVwiUFFNBA/oFkXJR19Mq2kmmmEKpwr4nt5bqydDgOBkeTpWLipSufJU+n
i4C539jP5hH4/b61MRLE/TjMoEbI0pwTIowQc7bGZ/LEgpIdxKOSfLm4XY7AE3Yc
N9XbkzsvUYtdcpUTaaVb+Wh2l/4eMKLXE0ChzJB96f+Xr0o6E+iLUkrRuH+aoybj
0kN4dWjbBF6cSyduWzkoy3XVOlJFeNJ8L60BsBOszPdjhW+yBND8A3aSAKYCWEgw
J1jBbYYM9rnuW8zuIXhd17SgfpIK048xq1MKIa7m4OPhxncWhEEbbAm3+ygf6dXe
cPANc/lU8CqmV3uVz+/UkPQCZOtkig5Wprq2uKq723j+LUdgOC9IJiDK1rVCKMUG
poUVVTm+QMZdHtwFvb5SmCyvjmj7OkR/4Mw9zGeRUoskhXNkB6GOHSnpV3HLFXJE
jn/6/uRtvvq4++bST9Za/39qmBUftJmychj4SYVkwT95bAVRtLIdcRRv2vCLlaso
P4p6VniOcEpUqMqPugpv5p/vqI00xRBmiAQteAYSICCSnyv6c3TCi38WIew1uSF6
b6WkPuMMXmFS/0TY4LGxJnwZy8z685uKSqtd6olLq88XUSN2vQ5QreVmo33OPES7
QKuGEzfPu2hwl9X+KMWnAnK3aOrnnE6k5u5SbSWgAi70mHxfODyStRP0uY2NZ528
CfuGVy7EgfY7cV70voBM16fJDmrHjs3aeXocPI4bLX1Uvq8Jh09Aakzvz9CMOJoA
Tdgae7NnM0hs1opC7YzlGqQ7orJbeN7m4pjJONHpy4AxqTUOyVc/TVxM5s/mIBmy
kBBV3KuZgfu7YawKUJelwM41pNg8vp0c7bv/hRh3A+26GaNPixTySYChjYv2dQHf
vbrK+EnD0/7uCVv4zQEsvGpAFM76/8Ivw6EnYOZzc7nWpOwgIo5n9Z57epzl6luX
nsxZc7N+LbDzAAs0PhWFQ0q8OZdM+d73VxYPp5CtfDr786xMT0hcicIf0s6+pW6g
InXyP2H0Tw6Glwk7x/k/olE+u1HAAnyMCWCqgTqc8fdMZ7PqxtJgm4UPsm4BHCmM
5RDDQtJkxZoS7Mx+6iZMeqhVJtCd+dmctxSw2SptaNYYlKaztrXPbxQENtyDRcOH
4gwmjIbCMdAeszIpo+V/GG5O4Whi81kX+gPqZ1Z0Ek4RqFQ/y5dNOBCKCix18gUr
nTAGbGJ4rJqqCgAFTZE2tLi6hnisvAFGAkgX8PhLhGw+Vp0/yghLiEO9FaUBBHyA
aqrCkpqvFdeNK+D1U1MmsNscqgRotWZyYN9hGn4qB077qCfM6In3J9Z7vXhuckEd
th3fhZq0WaPdh6Mhj3wqP5vTDVTp/1E19hQ4y0pZ1g==
=VDKF
-----END PGP MESSAGE-----
